icons/tsuru.svg

<?xml version="1.0" encoding="UTF-8" standalone="no"?>
<svg width="256px" height="193px" viewBox="0 0 256 193" version="1.1" xmlns="http://www.w3.org/2000/svg" xmlns:xlink="http://www.w3.org/1999/xlink" preserveAspectRatio="xMidYMid">
    <g>
        <path d="M225.37799,32.2551834 C224.969697,31.84689 224.561404,31.84689 224.15311,32.2551834 L118.813397,136.370016 C118.405104,136.778309 118.405104,137.186603 118.813397,137.594896 L139.22807,163.317384 L135.553429,191.897927 C135.553429,192.30622 135.553429,192.714514 135.961722,192.714514 L136.370016,192.714514 C136.778309,192.714514 136.778309,192.714514 137.186603,192.30622 L225.786284,33.0717703 C226.194577,33.0717703 225.786284,32.2551834 225.37799,32.2551834 L225.37799,32.2551834 Z M256,69.0015949 L235.177033,32.2551834 C235.177033,31.84689 234.76874,31.84689 234.360447,31.84689 C233.952153,31.84689 233.952153,31.84689 233.54386,32.2551834 L219.661882,57.569378 L219.661882,58.3859649 C219.661882,58.7942584 220.070175,58.7942584 220.070175,58.7942584 L254.77512,69.8181818 L255.183413,69.8181818 C255.591707,69.8181818 255.591707,69.8181818 256,69.4098884 L256,69.0015949 L256,69.0015949 Z M131.878788,164.950558 L131.878788,164.133971 L1.22488038,0 C1.22488038,0 -1.42108547e-14,0.408293461 -1.42108547e-14,0.816586922 L13.4736842,138.00319 L3.67464115,192.714514 L127.795853,192.714514 C128.204147,193.122807 131.878788,164.950558 131.878788,164.950558 Z" fill="#33DD99"></path>
    </g>
</svg>

<svg xmlns="http://www.w3.org/2000/svg" viewBox="0 0 256 192.719">
  <path fill="#3d9" d="M225.378 32.255c-.408-.408-.817-.408-1.225 0L118.813 136.37c-.408.408-.408.817 0 1.225l20.415 25.722-3.675 28.58c0 .41 0 .818.409.818h.408c.408 0 .408 0 .817-.409l88.6-159.234c.408 0 0-.817-.409-.817zM256 69.002l-20.823-36.747c0-.408-.408-.408-.817-.408-.408 0-.408 0-.816.408L219.662 57.57v.817c0 .408.408.408.408.408l34.705 11.024h.408c.409 0 .409 0 .817-.408zM131.879 164.95v-.817L1.225 0S0 .408 0 .817l13.474 137.186-9.8 54.712h124.122c.408.408 4.083-27.764 4.083-27.764z"/>
</svg>
